!!!COM:	Japart, Jean
!!!CDT:	~1450//-~1507//
!!!OTL:	J'ay pris amours I
!!!AGN:	Song; Chanson; Rondeau
!!!SCT:	Jap3011
!!!SCA:	Jap3011
!!!voices:	4
**kern	**kern	**kern	**kern
*staff4	*staff3	*staff2	*staff1
*Ivox	*Ivox	*Ivox	*Ivox
*I"Bassus	*I"Tenor	*I"Altus	*I"Discantus
*I'B	*I'T	*I'A	*I'D
*clefF4	*clefGv2	*clefGv2	*clefG2
*k[b-e-]	*k[b-e-]	*k[b-e-]	*k[b-e-]
*M2/1	*M2/1	*M2/1	*M2/1
*met(C|)	*met(C|)	*met(C|)	*met(C|)
=1-	=1-	=1-	=1-
!!LO:TX:Z=8:X=-40:t=Form&colon;rondeau
[0GG	[0G	[0d	0g
=2	=2	=2	=2
0GG]	0G]	1d]	1b-
.	.	[1d	1b-
=3	=3	=3	=3
0D	0F	2d]	0a
.	.	4c	.
.	.	4B-	.
.	.	1A	.
=4	=4	=4	=4
0G	1r	1B-	0d
.	1B-	[1G	.
=5	=5	=5	=5
1E-	1c	2G]	1r
.	.	4F	.
.	.	4G	.
1D	1d	1A	1f
=6	=6	=6	=6
1C	2e-	1r	1g
.	1c	.	.
1F	.	1c	1a
.	[2f	.	.
=7	=7	=7	=7
1G	2f]	2B-	1b-
.	2e-	2G	.
2D	2.f	1A	2a
2F	.	.	2f
.	4d	.	.
=8	=8	=8	=8
1E-	2e-	1G	1g
.	2c	.	.
1D	2d	2A	1f
.	2B-	2d	.
=9	=9	=9	=9
1C	4c	4e-	1r
.	4B-	4d	.
.	4A	4c	.
.	4G	4B-	.
2.D	1F#i	1A	1a
4C	.	.	.
=10	=10	=10	=10
2BB-	1G	2G	1b-
2GG	.	2d	.
2AA	2r	2c	1cc
2C	2A	2A	.
=11	=11	=11	=11
2GG	1B-	2G	1dd
2BB-	.	2g	.
1AA	2r	2e-	2cc
.	2c	2f	2a
=12	=12	=12	=12
2GG	2d	2.g	2b-
2.C	2e-	.	1g
.	.	4f	.
.	1c	4e-	.
4D	.	4d	.
4E-	.	2f	2a
4F	.	.	.
=13	=13	=13	=13
2G	2B-	2d	2g
2C	2c	2eni	2eni
1D	1A	1d	1f#i
=14	=14	=14	=14
2E-	2G	2r	0g
1G	1B-	1d	.
4F	4A	[2f	.
4E-	4G	.	.
=15	=15	=15	=15
2D	2F	2f]	0r
4C	1G	4e-	.
4BB-	.	4d	.
1AA	.	1c	.
.	2F#i	.	.
=16	=16	=16	=16
1GG	2.G	2B-	0g
.	.	2.d	.
.	4A	.	.
1r	2B-	.	.
.	.	4c	.
.	2c	4B-	.
.	.	4A	.
=17	=17	=17	=17
1GG	2d	1G	1b-
.	2e-	.	.
[1D	2f	1A	[1a
.	[2d	.	.
=18	=18	=18	=18
2D]	4d]	1F	1a]
.	4c	.	.
1F	1A	.	.
.	.	2r	1f
4E-	[2d	[2A	.
4D	.	.	.
=19	=19	=19	=19
1E-	2d]	2A]	1g
.	2c	2G	.
[1D	1d	1A	[1f
=20	=20	=20	=20
2D]	1r	2.B-	1f]
1BB-	.	.	.
.	.	4c	.
.	[1g	1d	[1b-
4AA	.	.	.
4GG	.	.	.
=21	=21	=21	=21
2BB-	2g]	1G	2b-]
2C	4f#i	.	2a
.	4eni	.	.
1AA	1f#i	1c	2a
.	.	.	4g
.	.	.	4a
=22	=22	=22	=22
2GG	2.g	1B-	0b-
2.G	.	.	.
.	4f	.	.
.	2d	2r	.
4F	.	.	.
2G	2e-	2G	.
=23	=23	=23	=23
2D	2f	2A	0r
1G	4e-	2B-	.
.	4d	.	.
.	2e-	2G	.
2F	[2d	2A	.
=24	=24	=24	=24
2G	4d]	1G	0b-
.	4c	.	.
2.GG	4B-	.	.
.	4A	.	.
.	1G	2.d	.
4AA	.	.	.
4BB-	.	.	.
4C	.	4e-	.
=25	=25	=25	=25
1D	1F	2f	1a
.	.	2.d	.
1r	2r	.	1f
.	.	4c	.
.	[2B-	4B-	.
.	.	4A	.
=26	=26	=26	=26
0E-	2B-]	2G	0g
.	2G	1G	.
.	2B-	.	.
.	2c	4F	.
.	.	4G	.
=27	=27	=27	=27
1D	2d	1A	1f
.	2.f	.	.
2BB-	.	1B-	[1d
.	4e-	.	.
[2B-	[2d	.	.
=28	=28	=28	=28
4B-]	4d]	1G	1d]
4A	4c	.	.
4G	4B-	.	.
4F	4A	.	.
2G	2B-	2d	[1g
2C	[2c	[2e-	.
=29	=29	=29	=29
2.E-	4c]	4e-]	1g]
.	4B-	4d	.
.	2c	2e-	.
4C	.	.	.
1D	1A	1d	1f
=30	=30	=30	=30
1GG	2G	1B-	1g
.	2g	.	.
1r	4f	1A	1a
.	4e-	.	.
.	4d	.	.
.	4c	.	.
=31	=31	=31	=31
!! Signum congruentiae
!LO:TX:Z=8:t=SC	!LO:TX:Z=8:t=SC	!	!LO:TX:Z=8:t=SC
0D	1d	1r	0f
!	!	!LO:TX:Z=8:t=SC	!
.	2A	1d	.
.	2B-	.	.
=32	=32	=32	=32
1F	2A	2c	0r
.	1d	2d	.
1E-	.	1e-	.
.	2c	.	.
=33	=33	=33	=33
0D	2d	2f	0f
.	2B-	2.d	.
.	1A	.	.
.	.	4c	.
.	.	2d	.
=34	=34	=34	=34
1GG	2G	2B-	1.g
.	1B-	1d	.
2r	.	.	.
2AA	2A	[2c	2f
=35	=35	=35	=35
2C	1G	2c]	2e-
2BB-	.	2d	2d
2D	2F	2A	[1d
4GG	[2G	[2B-	.
4AA	.	.	.
=36	=36	=36	=36
1BB-	4G]	4B-]	1d]
.	4F	4A	.
.	4Eni	2G	.
.	4D	.	.
1AA	1Eni	1A	1c#i
=37	=37	=37	=37
2r	1D	2F	0d
2D	.	2.B-	.
2.BB-	2r	.	.
.	.	4c	.
.	2G	4d	.
4C	.	4c	.
=38	=38	=38	=38
2D	2F	2A	1r
2E-	2G	2G	.
2F	2A	2c	1a
[2A	[2c	[2A	.
=39	=39	=39	=39
4A]	4c]	4A]	1a
4G	4B-	4B-	.
4F	4A	2c	.
4E-	4G	.	.
1D	1F#i	[1d	1a
=40	=40	=40	=40
1GG	2.G	2d]	1.b-
.	.	1g	.
.	4A	.	.
2r	2B-	.	.
2AA	2c	4f	4a
.	.	4e-	4g
=41	=41	=41	=41
2BB-	1d	1d	1f
2D	.	.	.
1C	1e-	1r	1g
=42	=42	=42	=42
1FF	2.f	2c	1a
.	.	2.d	.
.	4g	.	.
1r	1a	.	[1f
.	.	4c	.
.	.	4A	.
.	.	4B-	.
=43	=43	=43	=43
1.C	0g	2c	2f]
.	.	4B-	2eni
.	.	4A	.
.	.	1G	2eni
2C	.	.	2d
=44	=44	=44	=44
2.D	1r	2F	0f
.	.	2.A	.
4E-	.	.	.
2F	1d	.	.
.	.	4G	.
4E-	.	2A	.
4F	.	.	.
=45	=45	=45	=45
2G	1e-	1G	1r
2E-	.	.	.
1D	1f	1r	1d
=46	=46	=46	=46
1C	1g	1c	1e-
2r	1d	2.d	1f
2D	.	.	.
.	.	4c	.
=47	=47	=47	=47
2E-	2G	4B-	1g
.	.	4A	.
2.G	2.B-	1G	.
.	.	.	1d
4F	4A	.	.
4E-	[2d	[2A	.
4D	.	.	.
=48	=48	=48	=48
1E-	2d]	2A]	1r
.	2c	2G	.
1D	2d	1A	1f
.	[2f	.	.
=49	=49	=49	=49
2r	2f]	2B-	1g
2C	2e-	2c	.
4D	2f	2A	1f
4C	.	.	.
4BB-	[2d	[2B-	.
4AA	.	.	.
=50	=50	=50	=50
2GG	2d]	4B-]	1.b-
.	.	4c	.
1G	2B-	2.d	.
.	2.d	.	.
.	.	4e-	.
2F	.	2f	2a
.	4c	.	.
=51	=51	=51	=51
2G	2B-	2d	1g
2C	2c	2e-	.
1D	2A	1d	1f
.	2F	.	.
=52	=52	=52	=52
1GG	1G	2r	1b-
.	.	1.d	.
1D	2F	.	2a
.	[2f	.	[2dd
=53	=53	=53	=53
1BB-	2f]	1d	2dd]
.	4e-	.	2cc
.	4d	.	.
1F	1c	1f	2a
.	.	.	4g
.	.	.	4a
=54	=54	=54	=54
2D	2d	2r	1b-
1G	1B-	1d	.
.	.	.	[1g
2C	[2c	2e-	.
=55	=55	=55	=55
1E-	4c]	2.c	1g]
.	4B-	.	.
.	4A	.	.
.	4G	4B-	.
1D	1A	1d	1f#i
=56	=56	=56	=56
0GGl	0Gl	0dl	0gl
==	==	==	==
*-	*-	*-	*-
!!!RDF**kern: l=long note in original notation
!!!RDF**kern: i=editorial accidental
!!!ENC:	Chris Gage 09-11-2013
!!!END:	2013/10/23/
!!!EED:	Jesse Rodin
!!!EEV:	2013/12/19/
!!!ONB:	Translated from MusicXML and edited on 2013/12/19/ by Craig Sapp
!!muse2ps: C^@{COM}^i2I150v85,85,85,100Q16
